packages/ui/public/icons/post.svg

<svg width="23" height="23" viewBox="0 0 23 23" fill="none" xmlns="http://www.w3.org/2000/svg">
<path d="M10 3.99632H5.8C4.11984 3.99632 3.27976 3.99632 2.63803 4.3233C2.07354 4.61092 1.6146 5.06986 1.32698 5.63435C1 6.27609 1 7.11616 1 8.79632V17.1963C1 18.8765 1 19.7166 1.32698 20.3583C1.6146 20.9228 2.07354 21.3817 2.63803 21.6693C3.27976 21.9963 4.11984 21.9963 5.8 21.9963H14.2C15.8802 21.9963 16.7202 21.9963 17.362 21.6693C17.9265 21.3817 18.3854 20.9228 18.673 20.3583C19 19.7166 19 18.8765 19 17.1963V12.9963M6.99997 15.9963H8.67452C9.1637 15.9963 9.40829 15.9963 9.63846 15.9411C9.84254 15.8921 10.0376 15.8113 10.2166 15.7016C10.4184 15.5779 10.5914 15.405 10.9373 15.0591L20.5 5.49632C21.3284 4.66789 21.3284 3.32475 20.5 2.49632C19.6716 1.66789 18.3284 1.66789 17.5 2.49632L7.93723 12.0591C7.59133 12.405 7.41838 12.5779 7.29469 12.7798C7.18504 12.9587 7.10423 13.1538 7.05523 13.3579C6.99997 13.588 6.99997 13.8326 6.99997 14.3218V15.9963Z" stroke="white" stroke-width="2" stroke-linecap="round" stroke-linejoin="round"/>
</svg>

<svg width="23" height="23" fill="none" xmlns="http://www.w3.org/2000/svg"><path d="M10 3.996H5.8c-1.68 0-2.52 0-3.162.327a3 3 0 0 0-1.311 1.311C1 6.276 1 7.116 1 8.796v8.4c0 1.68 0 2.52.327 3.162a3 3 0 0 0 1.311 1.311c.642.327 1.482.327 3.162.327h8.4c1.68 0 2.52 0 3.162-.327a3 3 0 0 0 1.311-1.31c.327-.642.327-1.483.327-3.163v-4.2m-12 3h1.675c.489 0 .733 0 .963-.055a2 2 0 0 0 .579-.24c.201-.123.374-.296.72-.642L20.5 5.496a2.121 2.121 0 0 0-3-3L7.937 12.06c-.346.346-.519.519-.642.72a2 2 0 0 0-.24.579c-.055.23-.055.475-.055.964v1.674Z" stroke="#fff" stroke-width="2" stroke-linecap="round" stroke-linejoin="round"/></svg>
